svgs/gurgle.svg

<svg xmlns="http://www.w3.org/2000/svg" viewBox="0 0 192 192"><path d="M25.095 16.5a8.6 8.6 0 0 0-7.444 4.297 8.6 8.6 0 0 0-1.151 4.298v141.81c0 2.279.906 4.467 2.517 6.078a8.599 8.599 0 0 0 6.078 2.517h141.81a8.6 8.6 0 0 0 7.444-4.297 8.6 8.6 0 0 0 1.151-4.298V25.095a8.6 8.6 0 0 0-4.297-7.444 8.6 8.6 0 0 0-4.298-1.151Z" fill="none" stroke="#000" stroke-width="12" stroke-linecap="round" stroke-linejoin="round"/><path d="M51.196 131.118v30.081h15.041M123.672 161.199h15.041m-15.041-30.081h15.041m-15.041 15.04h9.806m-9.806-15.04v30.081M71.683 40.885a10.072 10.072 0 0 0-10.602-10.069 10.457 10.457 0 0 0-9.521 10.64v9.343a10.076 10.076 0 0 0 5.027 8.729 10.07 10.07 0 0 0 5.035 1.354 10.066 10.066 0 0 0 8.717-5.045 10.066 10.066 0 0 0 1.344-5.038H61.622m78.818 40.244a10.072 10.072 0 0 0-10.603-10.069 10.461 10.461 0 0 0-9.52 10.639v9.344a10.079 10.079 0 0 0 2.942 7.126 10.078 10.078 0 0 0 7.119 2.958 10.08 10.08 0 0 0 7.12-2.958 10.079 10.079 0 0 0 2.942-7.126h-10.062m-78.832 10.084V80.959h9.848a10.107 10.107 0 0 1 7.14 17.245 10.107 10.107 0 0 1-7.14 2.96h-9.848m9.848 0 9.847 9.869m49.061-80.232v20.117a9.967 9.967 0 0 0 16.988 7.004 9.967 9.967 0 0 0 2.941-7.004V30.801" fill="none" stroke="#000" stroke-width="8" stroke-linecap="round" stroke-linejoin="round"/></svg>

<svg
    xmlns="http://www.w3.org/2000/svg"
    viewBox="0 0 192 192"
    id="vector">
    <path
        id="path"
        d="M 25.095 16.5 C 23.586 16.5 22.104 16.897 20.797 17.651 C 19.491 18.406 18.406 19.491 17.651 20.797 C 16.897 22.104 16.5 23.586 16.5 25.095 L 16.5 166.905 C 16.5 169.184 17.406 171.372 19.017 172.983 C 20.628 174.594 22.816 175.5 25.095 175.5 L 166.905 175.5 C 168.414 175.5 169.896 175.103 171.203 174.349 C 172.509 173.594 173.594 172.509 174.349 171.203 C 175.103 169.896 175.5 168.414 175.5 166.905 L 175.5 25.095 C 175.5 23.586 175.103 22.104 174.349 20.797 C 173.594 19.491 172.509 18.406 171.203 17.651 C 169.896 16.897 168.414 16.5 166.905 16.5 Z"
        fill="none"
        stroke="#000000"
        stroke-width="12"
        stroke-linecap="round"
        stroke-linejoin="round"/>
    <path
        id="path_1"
        d="M 51.196 131.118 L 51.196 161.199 L 66.237 161.199"
        fill="none"
        stroke="#000000"
        stroke-width="8"
        stroke-linecap="round"
        stroke-linejoin="round"/>
    <path
        id="path_2"
        d="M 123.672 161.199 L 138.713 161.199 M 123.672 131.118 L 138.713 131.118 M 123.672 146.158 L 133.478 146.158 M 123.672 131.118 L 123.672 161.199 M 71.683 40.885 C 71.685 39.056 71.189 37.26 70.248 35.692 C 69.307 34.123 67.956 32.84 66.341 31.981 C 64.726 31.122 62.907 30.719 61.081 30.816 C 58.442 31.053 55.989 32.284 54.223 34.259 C 52.456 36.233 51.504 38.807 51.56 41.456 L 51.56 50.799 C 51.558 52.567 52.022 54.305 52.904 55.837 C 53.786 57.369 55.057 58.642 56.587 59.528 C 58.117 60.413 59.854 60.881 61.622 60.882 C 63.39 60.881 65.126 60.413 66.656 59.528 C 68.187 58.642 69.457 57.369 70.339 55.837 C 71.222 54.305 71.685 52.567 71.683 50.799 L 61.622 50.799 M 140.44 91.043 C 140.442 89.214 139.946 87.418 139.005 85.85 C 138.064 84.281 136.713 82.998 135.098 82.139 C 133.483 81.28 131.664 80.877 129.837 80.974 C 127.199 81.211 124.746 82.442 122.979 84.417 C 121.213 86.391 120.261 88.965 120.317 91.613 L 120.317 100.957 C 120.314 103.627 121.373 106.192 123.259 108.083 C 125.145 109.973 127.708 111.038 130.378 111.041 C 133.049 111.038 135.611 109.973 137.498 108.083 C 139.384 106.192 140.443 103.627 140.44 100.957 L 130.378 100.957 M 51.546 111.041 L 51.546 80.959 L 61.394 80.959 C 64.071 80.961 66.641 82.027 68.534 83.92 C 70.427 85.814 71.491 88.385 71.491 91.062 C 71.491 93.739 70.427 96.31 68.534 98.204 C 66.641 100.097 64.071 101.163 61.394 101.164 L 51.546 101.164 M 61.394 101.164 L 71.241 111.033 M 120.302 30.801 L 120.302 50.918 C 120.32 53.549 121.378 56.068 123.244 57.922 C 125.11 59.776 127.636 60.818 130.267 60.818 C 132.897 60.818 135.424 59.776 137.29 57.922 C 139.156 56.068 140.214 53.549 140.231 50.918 L 140.231 30.801"
        fill="none"
        stroke="#000000"
        stroke-width="8"
        stroke-linecap="round"
        stroke-linejoin="round"/>
</svg>
